usr/share/icons/biglinux-icons-material-dark/symbolic/status/task-process-2-symbolic.svg

<svg xmlns="http://www.w3.org/2000/svg" viewBox="0 0 22 22">
<defs id="defs3051">
<style id="current-color-scheme" type="text/css">
.ColorScheme-Contrast{color:#232629}
</style>
</defs>
<path d="M11 3a8 8 0 0 0-8 8 8 8 0 0 0 8 8 8 8 0 0 0 8-8 8 8 0 0 0-8-8m0 1v14a7 7 0 0 1-7-7 7 7 0 0 1 7-7" class="ColorScheme-Contrast" style="fill:currentColor"/>
</svg>

<svg xmlns="http://www.w3.org/2000/svg" viewBox="0 0 22 22">
  <defs
     id="defs3051">
    <style
       id="current-color-scheme"
       type="text/css">
      .ColorScheme-Text {
        color:#232629;
      }
      </style>
  </defs>
  <path
     style="fill:currentColor"
     d="M 11 3 A 8 8 0 0 0 3 11 A 8 8 0 0 0 11 19 A 8 8 0 0 0 19 11 A 8 8 0 0 0 11 3 z M 11 4 L 11 18 A 7 7 0 0 1 4 11 A 7 7 0 0 1 11 4 z "
     class="ColorScheme-Text"
     />
</svg>
